bernoullicharts/log_1_x_flajolet__bound.svg

<?xml version="1.0" encoding="utf-8" standalone="no"?>
<!DOCTYPE svg PUBLIC "-//W3C//DTD SVG 1.1//EN"
  "http://www.w3.org/Graphics/SVG/1.1/DTD/svg11.dtd">
<!-- Created with matplotlib (https://matplotlib.org/) -->
<svg height="345.6pt" version="1.1" viewBox="0 0 460.8 345.6" width="460.8pt" xmlns="http://www.w3.org/2000/svg" xmlns:xlink="http://www.w3.org/1999/xlink">
 <defs>
  <style type="text/css">
*{stroke-linecap:butt;stroke-linejoin:round;}
  </style>
 </defs>
 <g id="figure_1">
  <g id="patch_1">
   <path d="M 0 345.6 
L 460.8 345.6 
L 460.8 0 
L 0 0 
z
" style="fill:#ffffff;"/>
  </g>
  <g id="axes_1">
   <g id="patch_2">
    <path d="M 57.6 307.584 
L 414.72 307.584 
L 414.72 41.472 
L 57.6 41.472 
z
" style="fill:#ffffff;"/>
   </g>
   <g id="matplotlib.axis_1">
    <g id="xtick_1">
     <g id="line2d_1">
      <defs>
       <path d="M 0 0 
L 0 3.5 
" id="m16afa98d9b" style="stroke:#000000;stroke-width:0.8;"/>
      </defs>
      <g>
       <use style="stroke:#000000;stroke-width:0.8;" x="73.800255" xlink:href="#m16afa98d9b" y="307.584"/>
      </g>
     </g>
     <g id="text_1">
      <text style="font-family:DejaVu Sans;font-size:10px;font-style:normal;font-weight:normal;text-anchor:middle;" transform="rotate(-0, 73.800255, 322.182437)" x="73.800255" y="322.182437">0.0</text>
     </g>
    </g>
    <g id="xtick_2">
     <g id="line2d_2">
      <g>
       <use style="stroke:#000000;stroke-width:0.8;" x="138.744153" xlink:href="#m16afa98d9b" y="307.584"/>
      </g>
     </g>
     <g id="text_2">
      <text style="font-family:DejaVu Sans;font-size:10px;font-style:normal;font-weight:normal;text-anchor:middle;" transform="rotate(-0, 138.744153, 322.182437)" x="138.744153" y="322.182437">0.2</text>
     </g>
    </g>
    <g id="xtick_3">
     <g id="line2d_3">
      <g>
       <use style="stroke:#000000;stroke-width:0.8;" x="203.688051" xlink:href="#m16afa98d9b" y="307.584"/>
      </g>
     </g>
     <g id="text_3">
      <text style="font-family:DejaVu Sans;font-size:10px;font-style:normal;font-weight:normal;text-anchor:middle;" transform="rotate(-0, 203.688051, 322.182437)" x="203.688051" y="322.182437">0.4</text>
     </g>
    </g>
    <g id="xtick_4">
     <g id="line2d_4">
      <g>
       <use style="stroke:#000000;stroke-width:0.8;" x="268.631949" xlink:href="#m16afa98d9b" y="307.584"/>
      </g>
     </g>
     <g id="text_4">
      <text style="font-family:DejaVu Sans;font-size:10px;font-style:normal;font-weight:normal;text-anchor:middle;" transform="rotate(-0, 268.631949, 322.182437)" x="268.631949" y="322.182437">0.6</text>
     </g>
    </g>
    <g id="xtick_5">
     <g id="line2d_5">
      <g>
       <use style="stroke:#000000;stroke-width:0.8;" x="333.575847" xlink:href="#m16afa98d9b" y="307.584"/>
      </g>
     </g>
     <g id="text_5">
      <text style="font-family:DejaVu Sans;font-size:10px;font-style:normal;font-weight:normal;text-anchor:middle;" transform="rotate(-0, 333.575847, 322.182437)" x="333.575847" y="322.182437">0.8</text>
     </g>
    </g>
    <g id="xtick_6">
     <g id="line2d_6">
      <g>
       <use style="stroke:#000000;stroke-width:0.8;" x="398.519745" xlink:href="#m16afa98d9b" y="307.584"/>
      </g>
     </g>
     <g id="text_6">
      <text style="font-family:DejaVu Sans;font-size:10px;font-style:normal;font-weight:normal;text-anchor:middle;" transform="rotate(-0, 398.519745, 322.182437)" x="398.519745" y="322.182437">1.0</text>
     </g>
    </g>
    <g id="text_7">
     <text style="font-family:DejaVu Sans;font-size:10px;font-style:normal;font-weight:normal;text-anchor:middle;" transform="rotate(-0, 236.16, 335.860562)" x="236.16" y="335.860562">Input Coin's Heads Probability (λ)</text>
    </g>
   </g>
   <g id="matplotlib.axis_2">
    <g id="ytick_1">
     <g id="line2d_7">
      <defs>
       <path d="M 0 0 
L -3.5 0 
" id="m14b4365719" style="stroke:#000000;stroke-width:0.8;"/>
      </defs>
      <g>
       <use style="stroke:#000000;stroke-width:0.8;" x="57.6" xlink:href="#m14b4365719" y="295.489036"/>
      </g>
     </g>
     <g id="text_8">
      <text style="font-family:DejaVu Sans;font-size:10px;font-style:normal;font-weight:normal;text-anchor:end;" transform="rotate(-0, 50.6, 299.288254)" x="50.6" y="299.288254">0</text>
     </g>
    </g>
    <g id="ytick_2">
     <g id="line2d_8">
      <g>
       <use style="stroke:#000000;stroke-width:0.8;" x="57.6" xlink:href="#m14b4365719" y="251.432903"/>
      </g>
     </g>
     <g id="text_9">
      <text style="font-family:DejaVu Sans;font-size:10px;font-style:normal;font-weight:normal;text-anchor:end;" transform="rotate(-0, 50.6, 255.232122)" x="50.6" y="255.232122">5</text>
     </g>
    </g>
    <g id="ytick_3">
     <g id="line2d_9">
      <g>
       <use style="stroke:#000000;stroke-width:0.8;" x="57.6" xlink:href="#m14b4365719" y="207.37677"/>
      </g>
     </g>
     <g id="text_10">
      <text style="font-family:DejaVu Sans;font-size:10px;font-style:normal;font-weight:normal;text-anchor:end;" transform="rotate(-0, 50.6, 211.175989)" x="50.6" y="211.175989">10</text>
     </g>
    </g>
    <g id="ytick_4">
     <g id="line2d_10">
      <g>
       <use style="stroke:#000000;stroke-width:0.8;" x="57.6" xlink:href="#m14b4365719" y="163.320638"/>
      </g>
     </g>
     <g id="text_11">
      <text style="font-family:DejaVu Sans;font-size:10px;font-style:normal;font-weight:normal;text-anchor:end;" transform="rotate(-0, 50.6, 167.119856)" x="50.6" y="167.119856">15</text>
     </g>
    </g>
    <g id="ytick_5">
     <g id="line2d_11">
      <g>
       <use style="stroke:#000000;stroke-width:0.8;" x="57.6" xlink:href="#m14b4365719" y="119.264505"/>
      </g>
     </g>
     <g id="text_12">
      <text style="font-family:DejaVu Sans;font-size:10px;font-style:normal;font-weight:normal;text-anchor:end;" transform="rotate(-0, 50.6, 123.063724)" x="50.6" y="123.063724">20</text>
     </g>
    </g>
    <g id="ytick_6">
     <g id="line2d_12">
      <g>
       <use style="stroke:#000000;stroke-width:0.8;" x="57.6" xlink:href="#m14b4365719" y="75.208372"/>
      </g>
     </g>
     <g id="text_13">
      <text style="font-family:DejaVu Sans;font-size:10px;font-style:normal;font-weight:normal;text-anchor:end;" transform="rotate(-0, 50.6, 79.007591)" x="50.6" y="79.007591">25</text>
     </g>
    </g>
    <g id="text_14">
     <text style="font-family:DejaVu Sans;font-size:10px;font-style:normal;font-weight:normal;text-anchor:middle;" transform="rotate(-90, 31.795312, 174.528)" x="31.795312" y="174.528">Coin Flips Needed</text>
    </g>
   </g>
   <g id="line2d_13">
    <path clip-path="url(#p42e129b2db)" d="M 73.832727 286.679131 
L 77.112066 286.811325 
L 80.391405 286.941065 
L 83.670744 287.068437 
L 86.950083 287.193527 
L 90.229421 287.316414 
L 93.50876 287.437176 
L 96.788099 287.555888 
L 100.067438 287.672621 
L 103.346777 287.787445 
L 106.626116 287.900426 
L 109.905455 288.011628 
L 113.184793 288.121114 
L 116.464132 288.228942 
L 119.743471 288.335172 
L 123.02281 288.439858 
L 126.302149 288.543055 
L 129.581488 288.644814 
L 132.860826 288.745187 
L 136.140165 288.844222 
L 139.419504 288.941967 
L 142.698843 289.038468 
L 145.978182 289.13377 
L 149.257521 289.227915 
L 152.53686 289.320946 
L 155.816198 289.412905 
L 159.095537 289.503831 
L 162.374876 289.593763 
L 165.654215 289.682739 
L 168.933554 289.770797 
L 172.212893 289.857971 
L 175.492231 289.944298 
L 178.77157 290.029812 
L 182.050909 290.114546 
L 185.330248 290.198535 
L 188.609587 290.281809 
L 191.888926 290.364402 
L 195.168264 290.446344 
L 198.447603 290.527667 
L 201.726942 290.608399 
L 205.006281 290.688572 
L 208.28562 290.768214 
L 211.564959 290.847354 
L 214.844298 290.926021 
L 218.123636 291.004244 
L 221.402975 291.082049 
L 224.682314 291.159466 
L 227.961653 291.236521 
L 231.240992 291.313241 
L 234.520331 291.389655 
L 237.799669 291.465788 
L 241.079008 291.541668 
L 244.358347 291.617322 
L 247.637686 291.692776 
L 250.917025 291.768058 
L 254.196364 291.843193 
L 257.475702 291.91821 
L 260.755041 291.993135 
L 264.03438 292.067995 
L 267.313719 292.142818 
L 270.593058 292.21763 
L 273.872397 292.292461 
L 277.151736 292.367337 
L 280.431074 292.442287 
L 283.710413 292.51734 
L 286.989752 292.592525 
L 290.269091 292.667872 
L 293.54843 292.743409 
L 296.827769 292.819169 
L 300.107107 292.895181 
L 303.386446 292.971478 
L 306.665785 293.048092 
L 309.945124 293.125055 
L 313.224463 293.202402 
L 316.503802 293.280168 
L 319.78314 293.358387 
L 323.062479 293.437097 
L 326.341818 293.516334 
L 329.621157 293.596138 
L 332.900496 293.676549 
L 336.179835 293.757606 
L 339.459174 293.839354 
L 342.738512 293.921834 
L 346.017851 294.005094 
L 349.29719 294.08918 
L 352.576529 294.17414 
L 355.855868 294.260025 
L 359.135207 294.346887 
L 362.414545 294.434782 
L 365.693884 294.523767 
L 368.973223 294.613899 
L 372.252562 294.705243 
L 375.531901 294.797861 
L 378.81124 294.891822 
L 382.090579 294.987197 
L 385.369917 295.08406 
L 388.649256 295.182487 
L 391.928595 295.282562 
L 395.207934 295.38437 
L 398.487273 295.488 
" style="fill:none;stroke:#1f77b4;stroke-linecap:square;stroke-width:1.5;"/>
   </g>
   <g id="line2d_14">
    <path clip-path="url(#p42e129b2db)" d="M 73.832727 282.148839 
L 77.112066 282.325063 
L 80.391405 282.148839 
L 83.670744 282.325063 
L 86.950083 282.536533 
L 90.229421 282.236951 
L 93.50876 282.395553 
L 96.788099 282.44842 
L 100.067438 282.342686 
L 103.346777 282.677512 
L 106.626116 282.571777 
L 109.905455 282.466043 
L 113.184793 282.37793 
L 116.464132 282.307441 
L 119.743471 282.712757 
L 123.02281 282.095971 
L 126.302149 282.430798 
L 129.581488 282.131216 
L 132.860826 282.095971 
L 136.140165 282.043104 
L 139.419504 282.483665 
L 142.698843 282.536533 
L 145.978182 282.501288 
L 149.257521 282.554155 
L 152.53686 281.990237 
L 155.816198 282.307441 
L 159.095537 282.166461 
L 162.374876 282.078349 
L 165.654215 281.954992 
L 168.933554 282.73038 
L 172.212893 282.254573 
L 175.492231 282.536533 
L 178.77157 282.272196 
L 182.050909 282.272196 
L 185.330248 282.131216 
L 188.609587 282.060726 
L 191.888926 282.413175 
L 195.168264 281.761145 
L 198.447603 281.849257 
L 201.726942 282.325063 
L 205.006281 281.778767 
L 208.28562 281.919747 
L 211.564959 282.043104 
L 214.844298 281.44394 
L 218.123636 281.567298 
L 221.402975 281.056247 
L 224.682314 282.043104 
L 227.961653 281.902124 
L 231.240992 281.620165 
L 234.520331 281.373451 
L 237.799669 280.880022 
L 241.079008 282.043104 
L 244.358347 280.985757 
L 247.637686 281.58492 
L 250.917025 280.65093 
L 254.196364 280.527573 
L 257.475702 280.739042 
L 260.755041 281.496808 
L 264.03438 281.056247 
L 267.313719 280.615685 
L 270.593058 281.461563 
L 273.872397 280.615685 
L 277.151736 280.65093 
L 280.431074 281.056247 
L 283.710413 280.316103 
L 286.989752 280.069389 
L 290.269091 279.893165 
L 293.54843 279.452603 
L 296.827769 279.523093 
L 300.107107 278.92393 
L 303.386446 280.65093 
L 306.665785 279.470226 
L 309.945124 279.205889 
L 313.224463 279.452603 
L 316.503802 278.64197 
L 319.78314 278.659593 
L 323.062479 279.946032 
L 326.341818 279.012042 
L 329.621157 278.236654 
L 332.900496 275.593286 
L 336.179835 277.373154 
L 339.459174 276.826858 
L 342.738512 276.738746 
L 346.017851 275.452306 
L 349.29719 276.809235 
L 352.576529 277.337909 
L 355.855868 274.218735 
L 359.135207 275.681398 
L 362.414545 275.011745 
L 365.693884 272.703204 
L 368.973223 270.412285 
L 372.252562 272.667959 
L 375.531901 273.231877 
L 378.81124 271.029071 
L 382.090579 266.975907 
L 385.369917 268.279968 
L 388.649256 267.592692 
L 391.928595 259.204405 
L 395.207934 266.57059 
L 398.487273 53.568 
" style="fill:none;stroke:#ff7f0e;stroke-linecap:square;stroke-width:1.5;"/>
   </g>
   <g id="patch_3">
    <path d="M 57.6 307.584 
L 57.6 41.472 
" style="fill:none;stroke:#000000;stroke-linecap:square;stroke-linejoin:miter;stroke-width:0.8;"/>
   </g>
   <g id="patch_4">
    <path d="M 414.72 307.584 
L 414.72 41.472 
" style="fill:none;stroke:#000000;stroke-linecap:square;stroke-linejoin:miter;stroke-width:0.8;"/>
   </g>
   <g id="patch_5">
    <path d="M 57.6 307.584 
L 414.72 307.584 
" style="fill:none;stroke:#000000;stroke-linecap:square;stroke-linejoin:miter;stroke-width:0.8;"/>
   </g>
   <g id="patch_6">
    <path d="M 57.6 41.472 
L 414.72 41.472 
" style="fill:none;stroke:#000000;stroke-linecap:square;stroke-linejoin:miter;stroke-width:0.8;"/>
   </g>
   <g id="text_15">
    <text style="font-family:DejaVu Sans;font-size:12px;font-style:normal;font-weight:normal;text-anchor:middle;" transform="rotate(-0, 236.16, 35.472)" x="236.16" y="35.472">Coin Flips for log(1+x)</text>
   </g>
   <g id="legend_1">
    <g id="patch_7">
     <path d="M 64.6 78.82825 
L 282.8625 78.82825 
Q 284.8625 78.82825 284.8625 76.82825 
L 284.8625 48.472 
Q 284.8625 46.472 282.8625 46.472 
L 64.6 46.472 
Q 62.6 46.472 62.6 48.472 
L 62.6 76.82825 
Q 62.6 78.82825 64.6 78.82825 
z
" style="fill:#ffffff;opacity:0.8;stroke:#cccccc;stroke-linejoin:miter;"/>
    </g>
    <g id="line2d_15">
     <path d="M 66.6 54.570437 
L 86.6 54.570437 
" style="fill:none;stroke:#1f77b4;stroke-linecap:square;stroke-width:1.5;"/>
    </g>
    <g id="line2d_16"/>
    <g id="text_16">
     <text style="font-family:DejaVu Sans;font-size:10px;font-style:normal;font-weight:normal;text-anchor:start;" transform="rotate(-0, 94.6, 58.070437)" x="94.6" y="58.070437">Coin Flip Lower Bound (Mendo)</text>
    </g>
    <g id="line2d_17">
     <path d="M 66.6 69.248562 
L 86.6 69.248562 
" style="fill:none;stroke:#ff7f0e;stroke-linecap:square;stroke-width:1.5;"/>
    </g>
    <g id="line2d_18"/>
    <g id="text_17">
     <text style="font-family:DejaVu Sans;font-size:10px;font-style:normal;font-weight:normal;text-anchor:start;" transform="rotate(-0, 94.6, 72.748562)" x="94.6" y="72.748562">Avg. Coins Flipped log(1+x) (Flajolet)</text>
    </g>
   </g>
  </g>
 </g>
 <defs>
  <clipPath id="p42e129b2db">
   <rect height="266.112" width="357.12" x="57.6" y="41.472"/>
  </clipPath>
 </defs>
</svg>

<svg height="460.8" viewBox="0 0 460.8 345.6" width="614.4" xmlns="http://www.w3.org/2000/svg" xmlns:xlink="http://www.w3.org/1999/xlink"><defs><style>*{stroke-linecap:butt;stroke-linejoin:round}</style></defs><g id="figure_1"><path d="M0 345.6h460.8V0H0z" fill="#fff" id="patch_1"/><g id="axes_1"><path d="M57.6 307.584h357.12V41.472H57.6z" fill="#fff" id="patch_2"/><g id="matplotlib.axis_1"><g id="xtick_1"><g id="line2d_1"><defs><path d="M0 0v3.5" id="m16afa98d9b" stroke="#000" stroke-width=".8"/></defs><use x="73.8" xlink:href="#m16afa98d9b" y="307.584" stroke="#000" stroke-width=".8"/></g><text x="73.8" y="322.182" font-family="DejaVu Sans" font-size="10" font-weight="400" text-anchor="middle" id="text_1">0.0</text></g><g id="xtick_2"><use x="138.744" xlink:href="#m16afa98d9b" y="307.584" stroke="#000" stroke-width=".8" id="line2d_2"/><text x="138.744" y="322.182" font-family="DejaVu Sans" font-size="10" font-weight="400" text-anchor="middle" id="text_2">0.2</text></g><g id="xtick_3"><use x="203.688" xlink:href="#m16afa98d9b" y="307.584" stroke="#000" stroke-width=".8" id="line2d_3"/><text x="203.688" y="322.182" font-family="DejaVu Sans" font-size="10" font-weight="400" text-anchor="middle" id="text_3">0.4</text></g><g id="xtick_4"><use x="268.632" xlink:href="#m16afa98d9b" y="307.584" stroke="#000" stroke-width=".8" id="line2d_4"/><text x="268.632" y="322.182" font-family="DejaVu Sans" font-size="10" font-weight="400" text-anchor="middle" id="text_4">0.6</text></g><g id="xtick_5"><use x="333.576" xlink:href="#m16afa98d9b" y="307.584" stroke="#000" stroke-width=".8" id="line2d_5"/><text x="333.576" y="322.182" font-family="DejaVu Sans" font-size="10" font-weight="400" text-anchor="middle" id="text_5">0.8</text></g><g id="xtick_6"><use x="398.52" xlink:href="#m16afa98d9b" y="307.584" stroke="#000" stroke-width=".8" id="line2d_6"/><text x="398.52" y="322.182" font-family="DejaVu Sans" font-size="10" font-weight="400" text-anchor="middle" id="text_6">1.0</text></g><text x="236.16" y="335.861" font-family="DejaVu Sans" font-size="10" font-weight="400" text-anchor="middle" id="text_7">Input Coin&apos;s Heads Probability (λ)</text></g><g id="matplotlib.axis_2"><g id="ytick_1"><g id="line2d_7"><defs><path d="M0 0h-3.5" id="m14b4365719" stroke="#000" stroke-width=".8"/></defs><use x="57.6" xlink:href="#m14b4365719" y="295.489" stroke="#000" stroke-width=".8"/></g><text x="50.6" y="299.288" font-family="DejaVu Sans" font-size="10" font-weight="400" text-anchor="end" id="text_8">0</text></g><g id="ytick_2"><use x="57.6" xlink:href="#m14b4365719" y="251.433" stroke="#000" stroke-width=".8" id="line2d_8"/><text x="50.6" y="255.232" font-family="DejaVu Sans" font-size="10" font-weight="400" text-anchor="end" id="text_9">5</text></g><g id="ytick_3"><use x="57.6" xlink:href="#m14b4365719" y="207.377" stroke="#000" stroke-width=".8" id="line2d_9"/><text x="50.6" y="211.176" font-family="DejaVu Sans" font-size="10" font-weight="400" text-anchor="end" id="text_10">10</text></g><g id="ytick_4"><use x="57.6" xlink:href="#m14b4365719" y="163.321" stroke="#000" stroke-width=".8" id="line2d_10"/><text x="50.6" y="167.12" font-family="DejaVu Sans" font-size="10" font-weight="400" text-anchor="end" id="text_11">15</text></g><g id="ytick_5"><use x="57.6" xlink:href="#m14b4365719" y="119.265" stroke="#000" stroke-width=".8" id="line2d_11"/><text x="50.6" y="123.064" font-family="DejaVu Sans" font-size="10" font-weight="400" text-anchor="end" id="text_12">20</text></g><g id="ytick_6"><use x="57.6" xlink:href="#m14b4365719" y="75.208" stroke="#000" stroke-width=".8" id="line2d_12"/><text x="50.6" y="79.008" font-family="DejaVu Sans" font-size="10" font-weight="400" text-anchor="end" id="text_13">25</text></g><text transform="rotate(-90 31.795 174.528)" x="31.795" y="174.528" font-family="DejaVu Sans" font-size="10" font-weight="400" text-anchor="middle" id="text_14">Coin Flips Needed</text></g><path clip-path="url(#p42e129b2db)" d="M73.833 286.68l3.28.131 3.278.13 3.28.127 3.28.126 3.278.122 3.28.121 3.28.119 3.278.117 3.28.114 3.28.113 3.278.112 3.28.11 3.28.107 3.278.106 3.28.105 3.28.103 3.278.102 3.28.1 3.28.1 3.279.097 3.279.096 3.28.096 3.279.094 3.279.093 3.28.092 3.279.09 3.279.09 3.28.09 3.279.088 3.279.087 3.28.086 3.279.086 3.279.085 3.28.084 3.279.083 3.279.082 3.28.082 3.279.082 3.279.08 3.28.08 3.279.08 3.279.08 3.28.078 3.279.078 3.279.078 3.28.077 3.279.078 3.279.076 3.28.077 3.279.076 3.279.076 3.28.075 3.279.076 3.279.075 3.28.075 3.279.075 3.279.075 3.28.075 3.279.075 3.28.075 3.278.074 3.28.075 3.28.075 3.278.075 3.28.076 3.28.075 3.278.075 3.28.076 3.28.076 3.278.076 3.28.077 3.28.077 3.278.077 3.28.078 3.28.078 3.278.08 3.28.078 3.28.08 3.278.08 3.28.082 3.28.081 3.279.083 3.279.083 3.28.084 3.279.085 3.279.086 3.28.087 3.279.088 3.279.089 3.28.09 3.279.091 3.279.093 3.28.094 3.279.095 3.279.097 3.28.098 3.279.1 3.279.102 3.28.104" fill="none" stroke="#1f77b4" stroke-linecap="square" stroke-width="1.5" id="line2d_13"/><path clip-path="url(#p42e129b2db)" d="M73.833 282.149l3.28.176 3.278-.176 3.28.176 3.28.212 3.278-.3 3.28.159 3.28.052 3.278-.105 3.28.335 3.28-.106 3.278-.106 3.28-.088 3.28-.07 3.278.405 3.28-.617 3.28.335 3.278-.3 3.28-.035 3.28-.053 3.279.44 3.279.054 3.28-.036 3.279.053 3.279-.564 3.28.317 3.279-.14 3.279-.089 3.28-.123 3.279.775 3.279-.475 3.28.282 3.279-.265h3.279l3.28-.14 3.279-.071 3.279.352 3.28-.652 3.279.088 3.279.476 3.28-.546 3.279.14 3.279.124 3.28-.6 3.279.124 3.279-.51 3.28.986 3.279-.14 3.279-.283 3.28-.247 3.279-.493 3.279 1.163 3.28-1.057 3.279.599 3.279-.934 3.28-.123 3.279.211 3.279.758 3.28-.44 3.279-.441 3.28.846 3.278-.846 3.28.035 3.28.405 3.278-.74 3.28-.247 3.28-.176 3.278-.44 3.28.07 3.28-.6 3.278 1.728 3.28-1.18 3.28-.265 3.278.247 3.28-.811 3.28.018 3.278 1.286 3.28-.934 3.28-.775 3.278-2.644 3.28 1.78 3.28-.546 3.279-.088 3.279-1.287 3.28 1.357 3.279.529 3.279-3.12 3.28 1.463 3.279-.67 3.279-2.308 3.28-2.29 3.279 2.255 3.279.564 3.28-2.203 3.279-4.053 3.279 1.304 3.28-.687 3.279-8.389 3.279 7.367 3.28-213.003" fill="none" stroke="#ff7f0e" stroke-linecap="square" stroke-width="1.5" id="line2d_14"/><path d="M57.6 307.584V41.472" fill="none" stroke="#000" stroke-linecap="square" stroke-width=".8" id="patch_3"/><path d="M414.72 307.584V41.472" fill="none" stroke="#000" stroke-linecap="square" stroke-width=".8" id="patch_4"/><path d="M57.6 307.584h357.12" fill="none" stroke="#000" stroke-linecap="square" stroke-width=".8" id="patch_5"/><path d="M57.6 41.472h357.12" fill="none" stroke="#000" stroke-linecap="square" stroke-width=".8" id="patch_6"/><text x="236.16" y="35.472" font-family="DejaVu Sans" font-size="12" font-weight="400" text-anchor="middle" id="text_15">Coin Flips for log(1+x)</text><g id="legend_1"><path d="M64.6 78.828h218.263q2 0 2-2V48.472q0-2-2-2H64.6q-2 0-2 2v28.356q0 2 2 2z" fill="#fff" opacity=".8" stroke="#ccc" id="patch_7"/><path d="M66.6 54.57h20" fill="none" stroke="#1f77b4" stroke-linecap="square" stroke-width="1.5" id="line2d_15"/><text x="94.6" y="58.07" font-family="DejaVu Sans" font-size="10" font-weight="400" id="text_16">Coin Flip Lower Bound (Mendo)</text><path d="M66.6 69.249h20" fill="none" stroke="#ff7f0e" stroke-linecap="square" stroke-width="1.5" id="line2d_17"/><text x="94.6" y="72.749" font-family="DejaVu Sans" font-size="10" font-weight="400" id="text_17">Avg. Coins Flipped log(1+x) (Flajolet)</text></g></g></g><defs><clipPath id="p42e129b2db"><path d="M57.6 41.472h357.12v266.112H57.6z"/></clipPath></defs></svg>
